X: 39
T: Kenmure's Up and Awa'
B: NEFR #39
R: jig
Z: 2009 John Chambers <jc:trillian.mit.edu>
M: 6/8
L: 1/8
K: A
|:"A"Ace aec | "(E)"efe e2c | "A"Ace aec | "Bm"BcB "E7"B2c \
| "A"Ace aec | "E7"efg "D"agf | "A"edc "E7"dcB | "A"ABA A3 :|
|:"A"a2e fec | "A"efe "E7"e2g | "A"a2e "F#m"fec | "Bm"BcB "E7"B2e \
| "A"a2e fec | "E7"efg "D"agf | "A"edc "E7"dcB | "A"ABA A3 :|


